/* XPM */
static const char *output[] = {
/* columns rows colors chars-per-pixel */
"64 64 4 1 ",
"  c gray14",
". c #D8D8D8",
"X c white",
"o c black",
/* pixels */
"oooooooooooooooooooooooooooooooooooooooooooooooooooooooooooooooo",
"oooooooooooooooooooooooooooooooooooooooooooooooooooooooooooooooo",
"oooooooooooooooooooooooooooooooooooooooooooooooooooooooooooooooo",
"oooooooooooooooooooooooooooooooooooooooooooooooooooooooooooooooo",
"oooooooooooooooooooooooooooooooooooooooooooooooooooooooooooooooo",
"oooooooooooooooooooooooooooooooooooooooooooooooooooooooooooooooo",
"oooooooooooooooooooooooooooooooooooo            oooooooooooooooo",
"oooooooooooooooooooooooooooooooooooo            oooooooooooooooo",
"oooooooooooooooooooooooooooooooooo  XXXXXXXXXXXX  oooooooooooooo",
"oooooooooooooooooooooooooooooooooo  XXXXXXXXXXXX  oooooooooooooo",
"oooooooooooooooooooooooooooooooo  XXXXXXXXXXXXXXXX    oooooooooo",
"oooooooooooooooooooooooooooooooo  XXXXXXXXXXXXXXXX    oooooooooo",
"oooooooooooooooooooooooooooooo  XXXXXXXXXXXXXXXXXXXXXX  oooooooo",
"oooooooooooooooooooooooooooooo  XXXXXXXXXXXXXXXXXXXXXX  oooooooo",
"oooooooooooooooooooooooooooo  XXXXXXXXXXXXXXXXXXXXXXXXXX  oooooo",
"oooooooooooooooooooooooooooo  XXXXXXXXXXXXXXXXXXXXXXXXXX  oooooo",
"oooooooooooooooooooooooooooo  XXXXXXXXXXXX    XXXX  XXXX  oooooo",
"oooooooooooooooooooooooooooo  XXXXXXXXXXXX    XXXX  XXXX  oooooo",
"oooooooooooooooooooooooooooo  XXXXXXXXXX..    XXXX    XX  oooooo",
"oooooooooooooooooooooooooooo  XXXXXXXXXX..    XXXX    XX  oooooo",
"oooooooooooooooooooooooooo  XXXXXXXXXXXX      XXXX    XX  oooooo",
"oooooooooooooooooooooooooo  XXXXXXXXXXXX      XXXX    XX  oooooo",
"oooooooooooooooooooooooooo  XXXXXXXXXXXX      XXXX    XX  oooooo",
"oooooooooooooooooooooooooo  XXXXXXXXXXXX      XXXX    XX  oooooo",
"oooooooooooooooooooooooooo  XXXXXXXXXXXXXX  XXXXXXXX  XX  oooooo",
"oooooooooooooooooooooooooo  XXXXXXXXXXXXXX  XXXXXXXX  XX  oooooo",
"oooooooooooooooooooooooooo  XXXXXXXXXXXXXXXXXXXXXXXXXX..  oooooo",
"oooooooooooooooooooooooooo  XXXXXXXXXXXXXXXXXXXXXXXXXX..  oooooo",
"oooooooooooooooooooooooo  XXXXXXXXXXXXXXXXXXXXXXXXXXXX..  oooooo",
"oooooooooooooooooooooooo  XXXXXXXXXXXXXXXXXXXXXXXXXXXX..  oooooo",
"oooooooooooooooooooooo  XXXXXXXXXXXXXXXXXXXXXXXXXXXX....  oooooo",
"oooooooooooooooooooooo  XXXXXXXXXXXXXXXXXXXXXXXXXXXX....  oooooo",
"oooooooooooooooooooooo  XXXXXXXXXXXXXXXXXXXXXXXXXXXX....  oooooo",
"oooooooooooooooooooooo  XXXXXXXXXXXXXXXXXXXXXXXXXXXX....  oooooo",
"oooooooooooooooooooo  XXXXXXXXXXXXXXXXXXXXXXXXXXXX......  oooooo",
"oooooooooooooooooooo  XXXXXXXXXXXXXXXXXXXXXXXXXXXX......  oooooo",
"oooooooooooooooo    XXXXXXXXXXXXXXXXXXXXXXXXXXXXXX......  oooooo",
"oooooooooooooooo    XXXXXXXXXXXXXXXXXXXXXXXXXXXXXX......  oooooo",
"oooooooooooooo  XXXXXXXXXX..XXXXXX..XXXXXXXX..XXXX......  oooooo",
"oooooooooooooo  XXXXXXXXXX..XXXXXX..XXXXXXXX..XXXX......  oooooo",
"oooooo        XXXXXXXXXX....XXXXXX..XXXXXXXX..XX........  oooooo",
"oooooo        XXXXXXXXXX....XXXXXX..XXXXXXXX..XX........  oooooo",
"oooo  XXXXXXXXXXXXXXXX......XXXX....XXXXXX....XX........  oooooo",
"oooo  XXXXXXXXXXXXXXXX......XXXX....XXXXXX....XX........  oooooo",
"oooo  XXXXXXXXXXXX........XXXXXX....XXXXXX....XX..  ....  oooooo",
"oooo  XXXXXXXXXXXX........XXXXXX....XXXXXX....XX..  ....  oooooo",
"oooooo    XXXXXX........XXXXXX....XXXXXXXX........  ..  oooooooo",
"oooooo    XXXXXX........XXXXXX....XXXXXXXX........  ..  oooooooo",
"oooooooo          ......XXXX......XXXXXXXX  ......    oooooooooo",
"oooooooo          ......XXXX......XXXXXXXX  ......    oooooooooo",
"oooooooooooooooo    ..XXXXXX......XXXX....  ....    oooooooooooo",
"oooooooooooooooo    ..XXXXXX......XXXX....  ....    oooooooooooo",
"oooooooooooooooooooo  XXXX..    ........        oooooooooooooooo",
"oooooooooooooooooooo  XXXX..    ........        oooooooooooooooo",
"oooooooooooooooooooooo      oooo            oooooooooooooooooooo",
"oooooooooooooooooooooo      oooo            oooooooooooooooooooo",
"oooooooooooooooooooooooooooooooooooooooooooooooooooooooooooooooo",
"oooooooooooooooooooooooooooooooooooooooooooooooooooooooooooooooo",
"oooooooooooooooooooooooooooooooooooooooooooooooooooooooooooooooo",
"oooooooooooooooooooooooooooooooooooooooooooooooooooooooooooooooo",
"oooooooooooooooooooooooooooooooooooooooooooooooooooooooooooooooo",
"oooooooooooooooooooooooooooooooooooooooooooooooooooooooooooooooo",
"oooooooooooooooooooooooooooooooooooooooooooooooooooooooooooooooo",
"oooooooooooooooooooooooooooooooooooooooooooooooooooooooooooooooo"
};