/* XPM */
static const char *output[] = {
/* columns rows colors chars-per-pixel */
"64 64 7 1 ",
"  c gray14",
". c #330859",
"X c #3C1C8B",
"o c #4832DB",
"O c #5086EC",
"+ c #8BBFF3",
"@ c black",
/* pixels */
"@@@@@@@@@@@@@@@@@@@@@@@@@@@@@@@@@@@@@@@@@@@@@@@@@@@@@@@@@@@@@@@@",
"@@@@@@@@@@@@@@@@@@@@@@@@@@@@@@@@@@@@@@@@@@@@@@@@@@@@@@@@@@@@@@@@",
"@@@@@@@@@@@@@@@@@@@@@@@@@@@@@@@@@@@@@@@@@@@@@@@@@@@@@@@@@@@@@@@@",
"@@@@@@@@@@@@@@@@@@@@@@@@@@@@@@@@@@@@@@@@@@@@@@@@@@@@@@@@@@@@@@@@",
"@@@@@@@@@@@@@@@@@@@@@@@@@@@@@@@@@@@@@@@@@@@@@@@@@@@@@@@@@@@@@@@@",
"@@@@@@@@@@@@@@@@@@@@@@@@@@@@@@@@@@@@@@@@@@@@@@@@@@@@@@@@@@@@@@@@",
"@@@@@@@@@@@@@@@@@@@@@@@@@@@@@@@@@@@@@@@@@@@@@@@@@@@@@@@@@@@@@@@@",
"@@@@@@@@@@@@@@@@@@@@@@@@@@@@@@@@@@@@@@@@@@@@@@@@@@@@@@@@@@@@@@@@",
"@@@@@@@@@@@@@@@@@@@@@@@@@@@@@@@@@@@@@@@@@@@@@@@@@@@@@@@@@@@@@@@@",
"@@@@@@@@@@@@@@@@@@@@@@@@@@@@@@@@@@@@@@@@@@@@@@@@@@@@@@@@@@@@@@@@",
"@@@@@@@@@@@@@@@@@@@@@@@@@@@@@........    @@@@@@@@@@@@@@@@@@@@@@@",
"@@@@@@@@@@@@@@@@@@@@@@@@@@@@@........    @@@@@@@@@@@@@@@@@@@@@@@",
"@@@@@@@@@@@@@@@@@@@......@@..XXXXXXXXoooo  @@@@@@@@@@@@@@@@@@@@@",
"@@@@@@@@@@@@@@@@@@@......@@..XXXXXXXXoooo  @@@@@@@@@@@@@@@@@@@@@",
"@@@@@@@@@@@@@@@@@..XXoooo..XXXXXXXXXXXXoooo  @@@@@@@@@@@@@@@@@@@",
"@@@@@@@@@@@@@@@@@..XXoooo..XXXXXXXXXXXXoooo  @@@@@@@@@@@@@@@@@@@",
"@@@@@@@@@@@@@@@..XXooooXX..ooXXXXXXXX....oo  @@@@@@@@@@@@@@@@@@@",
"@@@@@@@@@@@@@@@..XXooooXX..ooXXXXXXXX....oo  @@@@@@@@@@@@@@@@@@@",
"@@@@@@@@@@@@@..XXXXooXX..ooOOooooXXoooooo..oo      @@@@@@@@@@@@@",
"@@@@@@@@@@@@@..XXXXooXX..ooOOooooXXoooooo..oo      @@@@@@@@@@@@@",
"@@@@@@@@@@@@@....XXoo..ooOOXXXXXXOOOOOOooOO..OOOOoo  @@@@@@@@@@@",
"@@@@@@@@@@@@@....XXoo..ooOOXXXXXXOOOOOOooOO..OOOOoo  @@@@@@@@@@@",
"@@@@@@@@@@@@@..XX..oo..OOXXooOO....OOOOOOooOOXXOOOOoo  @@@@@@@@@",
"@@@@@@@@@@@@@..XX..oo..OOXXooOO....OOOOOOooOOXXOOOOoo  @@@@@@@@@",
"@@@@@@@@@@@@@..XXXX..ooOOXXooOO......OOOOooOOXXooOOOOoo  @@@@@@@",
"@@@@@@@@@@@@@..XXXX..ooOOXXooOO......OOOOooOOXXooOOOOoo  @@@@@@@",
"@@@@@@@@@@@..XXOOXX..ooOOXXooooOOOOOOoo..ooOOXXooooOOOO  @@@@@@@",
"@@@@@@@@@@@..XXOOXX..ooOOXXooooOOOOOOoo..ooOOXXooooOOOO  @@@@@@@",
"@@@@@@@@@..XXOOoo..XXooooXX++ooooXXXX..ooOOOO..ooooooOO  @@@@@@@",
"@@@@@@@@@..XXOOoo..XXooooXX++ooooXXXX..ooOOOO..ooooooOO  @@@@@@@",
"@@@@@@@@@..OOoooo..XXOOooooXX++++++++++OOOO..XX..ooooXX  @@@@@@@",
"@@@@@@@@@..OOoooo..XXOOooooXX++++++++++OOOO..XX..ooooXX  @@@@@@@",
"@@@@@@@..OOooooooXX..++ooOOooXXXXXX........XXXX..XXXX  @@@@@@@@@",
"@@@@@@@..OOooooooXX..++ooOOooXXXXXX........XXXX..XXXX  @@@@@@@@@",
"@@@@@@@..OOOOOOooooXXoo++ooOOOOOOOOOOooooooXXXX..ooooXX  @@@@@@@",
"@@@@@@@..OOOOOOooooXXoo++ooOOOOOOOOOOooooooXXXX..ooooXX  @@@@@@@",
"@@@@@@@..OO++OOooooXXXXOOOOooOOOOOOooooooXXXX..oooooooo  @@@@@@@",
"@@@@@@@..OO++OOooooXXXXOOOOooOOOOOOooooooXXXX..oooooooo  @@@@@@@",
"@@@@@@@..OO++++OOooooXXXXOOOOooooooooooooXXXXoooooooooo  @@@@@@@",
"@@@@@@@..OO++++OOooooXXXXOOOOooooooooooooXXXXoooooooooo  @@@@@@@",
"@@@@@@@@@..OO++++OOooooXXXXXXooooooooooXXXXXXoooooooo  @@@@@@@@@",
"@@@@@@@@@..OO++++OOooooXXXXXXooooooooooXXXXXXoooooooo  @@@@@@@@@",
"@@@@@@@@@..ooOO++++OOooooXXooOOOOXXXXXXXX......XXoo  @@@@@@@@@@@",
"@@@@@@@@@..ooOO++++OOooooXXooOOOOXXXXXXXX......XXoo  @@@@@@@@@@@",
"@@@@@@@@@@@..OOOO++OOooooXXooOOOOooooooooooXXXXXX  @@@@@@@@@@@@@",
"@@@@@@@@@@@..OOOO++OOooooXXooOOOOooooooooooXXXXXX  @@@@@@@@@@@@@",
"@@@@@@@@@@@@@..ooooooooXX..OOOOOOooooooooooooXX  @@@@@@@@@@@@@@@",
"@@@@@@@@@@@@@..ooooooooXX..OOOOOOooooooooooooXX  @@@@@@@@@@@@@@@",
"@@@@@@@@@@@@@@@            OOOOOOOOOOooooooooXX  @@@@@@@@@@@@@@@",
"@@@@@@@@@@@@@@@            OOOOOOOOOOooooooooXX  @@@@@@@@@@@@@@@",
"@@@@@@@@@@@@@@@@@@@@@@@@@@@  OOOOOOOOOOOOoooo  @@@@@@@@@@@@@@@@@",
"@@@@@@@@@@@@@@@@@@@@@@@@@@@  OOOOOOOOOOOOoooo  @@@@@@@@@@@@@@@@@",
"@@@@@@@@@@@@@@@@@@@@@@@@@@@@@  XXooooooooXX  @@@@@@@@@@@@@@@@@@@",
"@@@@@@@@@@@@@@@@@@@@@@@@@@@@@  XXooooooooXX  @@@@@@@@@@@@@@@@@@@",
"@@@@@@@@@@@@@@@@@@@@@@@@@@@@@@@            @@@@@@@@@@@@@@@@@@@@@",
"@@@@@@@@@@@@@@@@@@@@@@@@@@@@@@@            @@@@@@@@@@@@@@@@@@@@@",
"@@@@@@@@@@@@@@@@@@@@@@@@@@@@@@@@@@@@@@@@@@@@@@@@@@@@@@@@@@@@@@@@",
"@@@@@@@@@@@@@@@@@@@@@@@@@@@@@@@@@@@@@@@@@@@@@@@@@@@@@@@@@@@@@@@@",
"@@@@@@@@@@@@@@@@@@@@@@@@@@@@@@@@@@@@@@@@@@@@@@@@@@@@@@@@@@@@@@@@",
"@@@@@@@@@@@@@@@@@@@@@@@@@@@@@@@@@@@@@@@@@@@@@@@@@@@@@@@@@@@@@@@@",
"@@@@@@@@@@@@@@@@@@@@@@@@@@@@@@@@@@@@@@@@@@@@@@@@@@@@@@@@@@@@@@@@",
"@@@@@@@@@@@@@@@@@@@@@@@@@@@@@@@@@@@@@@@@@@@@@@@@@@@@@@@@@@@@@@@@",
"@@@@@@@@@@@@@@@@@@@@@@@@@@@@@@@@@@@@@@@@@@@@@@@@@@@@@@@@@@@@@@@@",
"@@@@@@@@@@@@@@@@@@@@@@@@@@@@@@@@@@@@@@@@@@@@@@@@@@@@@@@@@@@@@@@@"
};