/* XPM */
static const char *exit_0[] = {
/* columns rows colors chars-per-pixel */
"64 64 12 1 ",
"  c black",
". c gray10",
"X c gray13",
"o c gray17",
"O c gray20",
"+ c gray25",
"@ c gray30",
"# c gray35",
"$ c #767676",
"% c gray53",
"& c #A7A7A7",
"* c gray69",
/* pixels */
"$$$$$$$$$$**$$$$$$$$**$$XXXX**********************&&**********$$",
"$$$$$$$$$$**$$$$$$$$**$$XXXX**********************&&**********$$",
"$$$$$$**$$$$$$****$$XXXX##XX***********&&*********&&********$$$$",
"$$$$$$**$$$$$$****$$XXXX##XX***********&&*********&&********$$$$",
"$$$$****$$$$******XX####XX*******$XXXXXXXXXXXXXX**&&********$$$$",
"$$$$****$$$$******XX####XX*******$XXXXXXXXXXXXXX**&&********$$$$",
"**$$**$$%%******XX####XX%%**XXXXXX############XX************$$**",
"**$$**$$%%******XX####XX%%**XXXXXX############XX************$$**",
"******%%%%%%**&&XX##@@XXXXXX####@@++@@##XXXXXX%%$$**********$$**",
"******%%%%%%**&&XX##@@XXXXXX####@@++@@##XXXXXX%%$$***%%*****$$**",
"**%%%%****%%%%XX##@@##XXXX####@@++++##XXXXXXXX$$%%***%%*****%%**",
"**%%%%****%%%%XX##@@##XXXX####@@++++##XXXXXXXX$$%%**********%%**",
"%%********$$%%XX##@@########OOOOOO++@@########XXXX%%**%%****%%%%",
"%%********$$%%XX##@@########OOOOOO++@@########XXXX%%**%%****%%%%",
"****XXXX****XX##@@@@##++@@OOXXXXXXXXOO++++@@######XXXX%%%%%%%%**",
"****XXXX****XX##@@@@##++@@OOXXXXXXXXOO++++@@######XXXX%%%%%%%%**",
"****XX##XX**XX##@@++++OOXXXX........XXXXXXOO++@@######XX%%&&****",
"****XX##XX**XX##@@++++OOXXXX........XXXXXXOO++@@######XX%%&&****",
"****XX##XXXX####@@++++XX....        ......XXOO++++++####XX******",
"****XX##XXXX####@@++++XX....        ......XXOO++++++####XX******",
"****XX##XXXX####++++OO..                  ..XXOO####@@####XX****",
"****XX##XXXX####++++OO..    oooooo        ..XXOO####@@####XX****",
"****XX####XX##@@++XX..    ooooooooooo       XXOO++##XXXX####XX**",
"****XX####XX##@@++XX..   oooo     oooo      XXOO++##XXXX####XX**",
"****XX##@@####@@OO..    ooo         ooo     ..XXOO@@XXXXXX##XX**",
"****XX##@@####@@OO..   ooo           ooo    ..XXOO@@XXXXXX##XX**",
"****XX##++++@@@@OO..  ooo    oooooo   ooo   ..XXXX++##XX**XX##XX",
"****XX##++++@@@@OO..  oo    oooooooo   oo   ..XXXX++##XX**XX##XX",
"****XX##++@@@@OO..   ooo   ooo    ooo   oo    ..XXOO++XX****XXXX",
"****XX##++@@@@OO..   oo   ooo      ooo  oo    ..XXOO++XX****XXXX",
"******XX##++++OO..   oo   oo  oooo  oo  oo    ..XXOOOO##XX******",
"******XX##++++OO..   oo   oo  oooo  oo  oo    ..XXOOOO##XX&&****",
"XXXX**XX##@@++OO..   oo   oo    oo  oo  oo    ..XXOO++@@XX&&****",
"XXXX**XX##@@++OO..   oo   ooo  ooo  oooooo    ..XXOO++@@XX******",
"XX##XX**XX##++OO..   ooo   oooooo   ooooo     ..XX++##++##XX****",
"XX##XX**XX##++OO..   ooo    oooo    ooooo     ..XX++##++##XX****",
"XX##XX**XX##@@++OO..  ooo           ooooo   ..XX++@@##@@++XX****",
"XX##XX**XX##@@++OO..   ooo         ooooo    ..XX++@@##@@++XX****",
"XX####XXXXXX##@@++..    ooo       ooooo     ..OO++##XX##@@XX%%**",
"XX####XXXXXX##@@++..     ooooooooooooo      ..OO++##XX##@@XX%%**",
"%%XX####XXXX##@@++OO..    ooooooooooo     ..XXOO++##XXXX##XX**%%",
"%%XX####XXXX##@@++OO..      oooooooo      ..XXOO++##XXXX##XX**%%",
"**XX####@@####@@++++OO..                ..XXOO++@@##XXXX##XX$$**",
"**XX####@@####@@++++OO..                ..XXOO++@@##XXXX##XX$$**",
"**$$XX####@@@@@@@@++++OO....        ....OO++++++####XXXX##XX$$$$",
"**$$XX####@@@@@@@@++++OO....        ....OO++++++####XXXX##XX$$$$",
"$$$$$$XXXX########@@@@@@++OO........XXOO@@@@++++##XX$$XX##XX$$$$",
"$$$$$$XXXX########@@@@@@++OO........XXOO@@@@++++##XX$$XX##XX$$$$",
"$$$$$$&&$$XXXX##########@@@@OOOOOOOO++@@##@@@@####XX**$$XXXX$$$$",
"$$$$$$&&$$XXXX##########@@@@OOOOOOOO++@@##@@@@####XX**$$XXXX$$$$",
"$$**$$&&$$**&&XXXXXXXXXX####++++++@@########@@##XX$$**$$$$$$**$$",
"$$**$$&&$$**&&XXXXXXXXXX####++++++@@########@@##XX$$**$$$$$$**$$",
"$$****$$$$**$$$$$$$$$$XX##@@++@@@@####XXXX@@@@##XX$$$$****$$****",
"$$****$$$$**$$$$$$$$$$XX##@@++@@@@####XXXX@@@@##XX$$$$****$$****",
"****$$$$$$****$$XXXXXX##@@++++####XXXXXX##@@##XX$$**************",
"****$$$$$$****$$XXXXXX##@@++++####XXXXXX##@@##XX$$**************",
"******$$******XX##########XXXXXXXX****XX####XX$$****************",
"******$$******XX##########XXXXXXXX****XX####XX$$****************",
"**************XXXXXXXXXXXX&&$$****XXXX####XX%%%%****************",
"**************XXXXXXXXXXXX&&$$****XXXX####XX%%%%****************",
"************$$**********&&******XX####XXXX******&&**************",
"************$$**********&&******XX####XXXX******&&**************",
"****$$$$**$$$$$$$$$$$$**&&******XXXXXX************&&************",
"****$$$$**$$$$$$$$$$$$**&&******XXXXXX************&&************"
};