/* XPM */
static const char *texture[] = {
"64 64 11 1 ",
"@ c #050505",
". c #0f0f10",
"+ c #1a1a1d",
"# c #2a2a30",
"$ c #5a5a62",
"o c #b9b9bf",
"O c #e6e6e8",
"x c #3b0608",
"X c #7a0d12",
"* c #c31c1d",
"= c #ef3a34",
".@+@@@@@@@@@@@@@.@@@@@@.@+@@@@@@@@@@@@@.@@@@@@.@+@@@@@@@@@@@@@.@",
"@@@+@@@@@@@@+@@@@@@@.@@@@@@@@.@@@@@@@@.@@@@.@@@.@@@@.@@@.@@@@.@@",
"@@@@@@.@@.@@@+@@@@@@@@.@@.@@@+@@@@@@@@@@@.@@@+@@@@@@@@@@@.@@@+@@",
"@@@.@@@@@@@+@@@@+@@@@+@.@@@@.@@@@@@@@@@@@@@@@@@@@@@@@@@.@@@@.@@@",
"@@@@@@@@@@@@@@@@@@@@@@@@+@+@+@@@@@@@@@@@@@@@@@@@@@@@.@.@.@.@@@@@",
"@@@@@@@@@@@@@@@@@@@@@@@@@@@@@.@@@@@@.@+@@.@@@@@@.@+@@@@@@@@@@@@@",
"@@.@@.@@@@@.@@.@@@@@@@@@@@@@@@@@+@@@@@@.@@.@@@@@.@@.@@@@@@@@@@@@",
"+.@@@.@@@@@@@@@@@+@@@@@@@@@@@@+.@@@.@@@@@@@@.@@+@@@@@@@@@@@@+.@@",
"@@@@+@.@@***@.@@@@@@.@@@@@@.@@@@@@.@@@@@@.@@@@@@.@@@@***@@@@@@@@",
"@@@@+@@.**@**@@@@@@@@@@+@@@..@@@@@@@@@@@@@@+@@.@.@@@**@**@@@@@+@",
"..@@@+@O*@@@*x@@@@@@@@@@.@.@@@+@@@@@@@@@@@@@@@@@@.@O*@@@*x@@@@@@",
"@@@.@@@@**@**x#@@@@@@@@@@@.@@@@@@.@+@@@@@@@@@@@@@.@@**@**x#@@@@@",
"@@@@@@@@@***xx@@@@+@@@@@@@@+@@@@@@@@+@@@@@@@@+@@@@@@@***xx@@@@.@",
"@@@@@@@.@@xxx@+@@@@@@@@.@@.@@@+@@@@@@@@.@@.@@@+@@@@@@@xxx@.@@@+@",
"@@@@@@@@@@@@@@@@@@@@@@@@@@.@@@@.@@@@.@@@@@@@+@@@@+@@@@+@.@@@@.@@",
"@@.@.@.@@@@@@@@@.@.@X@.@@@@@@@@@@@@@@@@@@@@@@@@@@@@@@@@@@+@+@+@@",
"@@@@@@@@@.@@@@@@.@+@@XX@xx@@.XXXXXXX@@@@@@@@@@@@@@@@@@@@@@@@@@.@",
"@.@@@@@@@@.@@@@@@@@@@@xxX@XXXXXXXXXXXXX@@@@@.@@.@@@@@@@@@@@@@@@@",
"@@@@.@@@.@@@@@@@@@@@+x@@XXXXX@@#####XXXXX@@@@X@@@@+@@@@@@@@@@@@+",
"@@+@@@@@@+@.@@@@+@.@@@@XXX@@###########XXX@@@@XX@xx@@.@@@@@@.@@@",
"@.@.@@@@@@@@@@@@@+@@@XXX@@###*******@+###XXX@@@xxX@@@@@@+@@@..@@",
"@@@@@@.@.@@@@+@@@@@@XXX@@##**@@.@..@**+@@#XXX@x@@@@@@@@@@.@.@@@+",
"@@@@@@@@@@@@@.@@@@@@XX+##**@@@@@@@@@.@**@@@XX#@@@@@@@@@@@@@.@@@@",
".@@@@.@@@@@@@@.@@@@XX@##*@@@@@@@O@@@@@@@*@+@XX#@@@@+@@@@@@@@+@@@",
"@@@@@@@@.@@@@@@+@@XX@@#*.@@.@@@+O@@@@@@@.*@.@XX+@@@@@@@@.@@.@@@+",
"@@.@@@@.@@@@@@@+@@XX+#*@@+@.@@@@O@@@@@@@@@*@@XX#@@@@@@@@@@@.@@@@",
"@@@@@+@+@+@+@@@@@XX@##*@@@@@@@@@O@@.@.@.@@*@@@XX#.@.@.@.@@@@@@@@",
"@.@@@@@@.@+@@.@@@XX@#*@@@@@@@@@@O@@@@@@@@@.*@@XX#.@+@@.@@@@@@.@+",
"@@@@@@.@@.@@@@@@@XX##*@@+@@+@@@*O*.@@@@@@@@*@@XX##@@@@@@@@@@@+@@",
"@@@@@@@.@@@.@@@@XX@#*@@+@@@@.@**O**@@.@@@.@@*@@XX#@@@+@@@@.@@@@@",
"+.@@@@@+.@@@@@+.XX@#*+@@@@@@+***O***@@@@@@+@*@@XX#@.@@@@+@.@@@@+",
"@@@@@@@@@@@@@@@.XX##*@@@@@@@****O****@@@@@@@*@@XX##@@@.@@@@@@@@@",
"@@@@@@@@@@@@@@.@XX##*@@OOOOOOOOO@OOOOOOOOO*****XX##@@@@@@@@@@@@@",
".@@@@@@.@+@@@@@@XX##*@@.@@@@****O****@@@@@@@*@.XX##@@.@+@@@@@@@@",
"@@@@@@.@@@@@@@@.XX##*@@@.@@@@***O***@@.@@@@@*@@XX##@@@@@.@@@@@@@",
"@@@@@@@@@.@@@@@@XX##*@@@@.@@@@**O**@@@@@@.@@*@@XX##@@@@@@.@@.@@@",
"@@@.@@@@@@@@@@@@@XX#@*@@@@@@@@.*O*@.@@@@.@@*@@XX+##@@+@.@@+@.@@@",
"@.@.@@@@@@@@@@@@@XX#@*@@@@@*@@@@O@@@@*+@+@+*+@XX@##@@@@@@@@@@@@@",
"@@+@@@@@@@@@@@@@@XX##@*@@@*@@.@+O@.@@@*@@.*+@@XX##@@@@@@@@@@@@@@",
"@@.@@.@@@@@@@@@@@@XX#@*+@*@@@@.@O@@@@@@*@@*@@XX@##@@@@@@@+@@+@@@",
"@.@@@@@@@@.@@@@@@@XX#@@**@+@@@@.O@@@@@@@**@@.XX@##@@@@@@+@@@@.@@",
"@@@@@@.@@@@@@.@@@@@XX#@**@@.@@@@O+.@@@@@**@@XX@##@@@@@+@@@@@@+@@",
"@@@@@@@@@.@.@@@@@@@@XX@@@**@.@.@*@@@@@**@@@XX@@##@@@@@@@@@@@@@@@",
"@@@+@@@@@@@@@@@@@@@@XXX@.@@**@@@*@@@**@@@@XXX@##@.@@@+@@@@@@@@@@",
"@@@@@@@@@@.@@@@@@.@+@XXX@@@@@*******@@@@.XXX@X#@@@@@@@@@.@@@@@@.",
"@@@@+@@@@@@@@+@@@@@@@.#XXX@@@@.@*@@@@@@XXX@@##XX.xx@@.@@@.@@@@.@",
".@@@@@@@@@.@@@@@@@X@@@@#XXXXX@@@*@@@XXXXX@.###@xxX@@@@@@@@.@@@@@",
"@.@@@@.@@@@@@@@@@@@XX@xx+#XXXXXXXXXXXXX@@###@@x@@@@@@@@@@@@@@@@.",
"@@@@@@@@@@@@@@@@.@.@xxX@@@###XXXXXXX.@#####@@@@@@@@@@@@@@@@@@@@@",
"@@@@@@@@@.@+@@.@@@@x@.@+@@.@#############@@@@@@@@@@@@@@.@@@@@@.@",
"@.@@@@@@@@@@@@@@@@@+@@@@@@.@@.@#######.@@@@@@@@@@@@@@@@@+@@@@@@.",
"@@@@.@@@@@@@@.@@@@@@@@@@@@@@@+@@@@.@@@@@@@@.@@@@@@@@@@@@@@@+@@@@",
"@@@@@@@@@***@@@@@@.@@@@@@.@@@@@@.@@@@@@.@@@@@@.@@@@@@***@@@@.@@@",
"+@@.@.@@**@**@@@@@@+@@@@.@@@@@@@@@@@@@@@@@.@.@@@@@@@**@**@+@@.@.",
"@@@@.@.O*@@@*x@@@@@@@@@@@@@@@.@.@@@@+@@@@@@@@@@@@@@O*@@@*x@@@+@@",
"@@@@.@+@**@**x#@@@@@.@@@@@@.@+@@@@@@@@@@@@@.@@@@@@.@**@**x#@@@@@",
".@@@@@@@@***xx@@@@@+@@@@@@@@+@@@@@@@@+@@@@@@@@+@@@@@@***xx@@@@@.",
"@.@@@@@@@@xxx@@@@.@@@@@@@@@.@@@@@.@@@@@@@@@.@@@@@@@@@@xxx@@.@@@@",
"@@.@@@@.@@@@@@@@@@@@@@@@@@@@@@@@@@.@@@@.@@@@@@@@@@@@+@@@@+@.@@+@",
"@@@@@@@@@@@@@@@@@@@+@+@+@+@@@@@@@@@@@@@@@@@@@@@@@.@.@.@.@@@@@@@.",
"@.@+@@.@@@@@@.@+@@@@@@@@@@@@@@@@@@@@@@@@@@.@+@@.@@@@@@.@+@@.@@@@",
"@@@@@@@@@@@@@@@+@@+@@@.@@.@@@@@@@@.@@@@@@@@@@@@@@@@@+@@@@@@.@@.@",
"@@+.@@@.@@@@@@@@.@@@@@@@@@@@@@@@+@@@@.@@@@@@@@.@@@@@@@@@@@@@@@+@",
"@@@@@@@@@@@@@@@@@@@@@@@@@@@@@@@@@@@@@@@@@@@@.@@@@@@.@@@@@@.@@@@@"
};
