/* XPM */
static const char *texture[] = {
"64 64 11 1 ",
"@ c #050505",
". c #0f0f10",
"+ c #1a1a1d",
"# c #2a2a30",
"$ c #5a5a62",
"o c #b9b9bf",
"O c #e6e6e8",
"x c #3b0608",
"X c #7a0d12",
"* c #c31c1d",
"= c #ef3a34",
"................................................................",
".@@+@@@@@@@@+@@@@@@@.@@@@@@@@.@@@@@@@@.@@@@.@@@.@@@@.@@@.@@@@.@.",
".@@@@@.@@.@@@+@@@@@@@@.@@.@@@+@@@@@@@@@@@.@@@+@@@@@@@@@@@.@@@+@.",
".@@.@@@@@@@+@@@@+@@@@+@.@@@@.@@@@@@@@@@@@@@@@@@@@@@@@@@.@@@@.@@.",
".@@@@@@@@@@@@@@@@@@@@@@@+@+@+@@@@@@@@@@@@@@@@@@@@@@@.@.@.@.@@@@.",
".@@@@@@@@@@@@@@@@@@@@@@@@@@@@.@@@@@@.OO***OO@@@@.@+@@@@@@@@@@@@.",
".@.@@.@***@.@@.@@@@@@@O***O@@@@@+@@@OO*XXX*oO@@@.@@.@@@***@@@@@.",
"..@@@.**@**@@@@@@+@@@O**@**O@@+.@@@OO*X=@XX*oO@+@@@@@@**@**@+.@.",
".@@@+O*@@@*x@.@@@@@@Oo*@@@*xO@@@@@Ooo*X@@@X*xoO@.@@@@O*@@@*x@@@.",
".@@@+@**@**x#@@@@@@@@O**@**x##@@@@@OO*XX@XX*xO##.@@@@@**@**x#@+.",
"..@@@+@***xx@@@@@@@@@@O***xx#@+@@@@@OO*XXX*xx##@@.@.@@@***xx@@@.",
".@@.@@@@xxx@+@@@@@@@@@@#xxx#@@@@@.@+@OO***xx##@@@.@@@@@@xxx@@@@.",
".@@@@@@@@+@@@@@@@@+@@@@@@@@+@@@@@@@@+@##xxx##+@@@@@@@.@@@@@@@@..",
".@@@@@@.@@.@@@+@@@@@@@@.@@.@@@+@@@@@@@@.@@.@@@+@@@@@@@@.@@.@@@+.",
".@@@@@@@@@@@@@@@@@@@@@@@@@.@@@@.@@@@.@@@@@@@+@@@@+@@@@+@.@@@@.@.",
".@.@.@.@@@@@@@@@.@.@.@.@@@@@@@@@@@@@@@@@@@@@@@@@@@@@@@@@@+@+@+@.",
".@@@@@@@@.@@@@@@.@+@@.@@@@@@.@+@@@@@@@@@@@@@@@@@@@@@@@@@@@@@@@..",
"..@@@@@@@@.@@@@@@@@@@@@@@@@@+@@+@@@.@@.@@@@@.@@.@@@@@@@@@@@@@@@.",
".@@@.@@@.@@@@@@@@@@@+@@@@.@@@@@@@+.@@@.@@@@@@@@@@@+@@@@@@@@@@@@.",
".@+@@@@@@+@.@@@@+@.@@@@+@.@@@OO***OO@+@.@@@@@@.@@@@@@.@@@@@@.@@.",
"..@.@@@@@@@@@@O***O@@.@@@@@@OO*XXX*oO+@@.@.@@@@***@@@@@@+@@@..@.",
".@@@@@.@.@@@@O**@**O@@@@@@@OO*X=@XX*oO+@@@@@@@**@**@@@@@@.@.@@@.",
".@@@@@@@@@@@Oo*@@@*xO@+@@@Ooo*X@@@X*xoO@@@@.@O*@@@*x@@@@@@@.@@@.",
".@@@@.@@@@@@@O**@**x##@.@@@OO*XX@XX*xO##@@+@@@**@**x#@@@@@@@+@@.",
".@@@@@@@.@@@@@O***xx#@@@.@@.OO*XXX*xx##@.@@.@@@***xx@@@@.@@.@@@.",
".@.@@@@.@@@@@@@#xxx#+@.@@+@.@OO***xx##@@@@@@@@@@xxx@@@@@@@@.@@@.",
".@@@@+@+@+@+@@@@@@@@@@@@@@@@@@##xxx##.@.@@@@@@@@@.@.@.@.@@@@@@@.",
"..@@@@@@.@+@@.@@@@@@@@@@@@@@@@@@@@@@@@@@@@.@@@@@@.@+@@.@@@@@@.@.",
".@@@@@.@@.@@@@@@@@@@@@@@+@@+@@@@@@.@@@@@@@@.@@@@@@@@@@@@@@@@@+@.",
".@@@@@@.@@@.@@@@@@@@@@@+@@@@.@@@@@@@@.@@@.@@@@@@@@@@@+@@@@.@@@@.",
"..@@@@@+.@@@@@+.@@@@@+@@@@@@+@@@@@@+@@@@@@+@.@@@@+@.@@@@+@.@@@@.",
".@@@@@@@@@@@@@@.@@@@@@@@@@@@@@@+@@.@.@@@@@@@@@@@@@+@@@.@@@@@@@@.",
".@@@@@@@@@@@@@.@.@@@+@@@@@@@@@@@@@@@@@@.@.@@@@+@@@@@@@@@@@@@@@@.",
".@@@@OO***OO@@@@@@@@@@@.@@@@@@.@+@@@@@@@@@@@@@.@@@@@@OO***OO@@@.",
".@@@OO*XXX*oO@@.@@@@.@@***@@@.@@@.@@@@O***O@@@@.@@@@OO*XXX*oO@@.",
".@@OO*X=@XX*oO@@+@@@@@**@**@@@@@+@@@@O**@**O@@@@+@@OO*X=@XX*oO@.",
".@Ooo*X@@@X*xoO@@@@@@O*@@@*x@@.@@@@.Oo*@@@*xO@@@+@Ooo*X@@@X*xoO.",
"..@OO*XX@XX*xO##@@@@@@**@**x#@@@@@@@@O**@**x##@@@@@OO*XX@XX*xO#.",
".@+@OO*XXX*xx##@@@@@@@.***xx@.@+@@.@@@O***xx#@.@@@@@OO*XXX*xx##.",
".@.@@OO***xx##@@@@@@@@@+xxx@@@.@@@@@@@@#xxx#@@@@@@@@@OO***xx##@.",
"..@@@@##xxx##@@@@@@@@@@@@@+@@@@.@@@@@@@@.@@@.@@@@@@@@@##xxx##.@.",
".@@@@@.@@@@@@.@@@@@@.@@@@@@.@@@@@+.@@@@@+.@@@@@+.@@@@@+@@@@@@+@.",
".@@@@@@@@.@.@@@@@@@@@@@@@+@@.@.@@@@@@@@@@@@@@@@@.@@@@@@@@@@@@@@.",
".@@+@@@@@@@@@@@@@@@@@.@@.@@@+@@@@@@@@@@@@@@@@@@.@.@@@+@@@@@@@@@.",
".@@@@@@@@@.@@@@@@.@+@@@@@@@@@@@@@.@@@@@@.@+@@@@@@@@@@@@@.@@@@@@.",
".@@@+@@@@@@@@+@@@@@@@.+@@@@@@@.@@@@@@@@.@@@@@@@@.@@@@.@@@.@@@@..",
".@@@@@@@@@.@@@@@@@@@@@@@@@.@@@@@@@@@@@@@@@.@@@@@@+@@@@@@@@.@@@@.",
"..@@@@.@@@@@@@@@@@@+@@@@+@.@@+@.@@@@.@@@@@@@@OO***OO@@@@@@@@@@@.",
".@@@@@@@@@@@@@@***.@.@.@@@@@@@O***O@.@@@@@@@OO*XXX*oO@@@@@@@@@@.",
".@@@@@@@@.@+@@**@**@@.@+@@.@@O**@**O@@@@@@@OO*X=@XX*oO@.@@@@@@..",
"..@@@@@@@@@@@O*@@@*x@@@@@@.@Oo*@@@*xO@.@@@Ooo*X@@@X*xoO@+@@@@@@.",
".@@@.@@@@@@@@.**@**x#@@@@@@@@O**@**x##@@@@@OO*XX@XX*xO##@@@+@@@.",
".@@@@@@@@@@.@@@***xx@@@@@.@@@@O***xx#@@.@@@@OO*XXX*xx##@@@@@.@@.",
".@@.@.@@@@@@@@@@xxx+@@@@.@@@@@@#xxx#@@@@@@.@.OO***xx##@@@@+@@.@.",
".@@@.@.@@@+@@@@@@@@@@@@@@@@@@.@.@@@@+@@@@@@@@@##xxx##@.@@.@@@+@.",
".@@@.@+@@@@@@@@@@@@@.@@@@@@.@+@@@@@@@@@@@@@.@@@@@@.@+@@@@@@@@@@.",
".@@@@@@@@@+@@@@@@@@+@@@@@@@@+@@@@@@@@+@@@@@@@@+@@@@@@@.+@@@@@@@.",
"..@@@@@@@@@@@@@@@.@@@@@@@@@.@@@@@.@@@@@@@@@.@@@@@@@@@@@@@@@.@@@.",
".@.@@@@.@@@@@@@@@@@@@@@@@@@@@@@@@@.@@@@.@@@@@@@@@@@@+@@@@+@.@@+.",
".@@@@@@@@@@@@@@@@@@+@+@+@+@@@@@@@@@@@@@@@@@@@@@@@.@.@.@.@@@@@@@.",
"..@+@@.@@@@@@.@+@@@@@@@@@@@@@@@@@@@@@@@@@@.@+@@.@@@@@@.@+@@.@@@.",
".@@@@@@@@@@@@@@+@@+@@@.@@.@@@@@@@@.@@@@@@@@@@@@@@@@@+@@@@@@.@@..",
".@+.@@@.@@@@@@@@.@@@@@@@@@@@@@@@+@@@@.@@@@@@@@.@@@@@@@@@@@@@@@+.",
"................................................................"
};
