/* XPM */
static const char *texture[] = {
"64 64 11 1 ",
"@ c #050505",
". c #0f0f10",
"+ c #1a1a1d",
"# c #2a2a30",
"$ c #5a5a62",
"o c #b9b9bf",
"O c #e6e6e8",
"x c #3b0608",
"X c #7a0d12",
"* c #c31c1d",
"= c #ef3a34",
"..@@@@.@..@.@.@@....@@@..@@@..@....@.@...@@@@@.@..@....@.@..@@@.",
"...@..@@...@@@.@@...@@.@@...@..@...@@.@@@..@..@.@..@.@..@....@.@",
"..@...@@......@@.@...@@.@......@@......@.@@...@@@@....@.@@@..@.@",
"@@.@@@..@.@@@@@@.@@.@.......@.@..@....@.@......@@.@.@@@..@@@@.@@",
".@.@@@..@@...@@@@....@.@@@..@@.@....@.@@....@.@@@@@@@@@@@..@.@.@",
"@.@.@@.@..@@.@.@.@..@...@..@..@...@@....@.@.@@.@.@@.@..@...@@@@@",
"@@@.@.@.@@@@@@....@....@..@.@....@.@@....@....@@..@@@@..@.@.@@@@",
"..@.@.@@@..@@.@....@..@...@@.@..@....@...@@@...@.@..@@@.@@@@.@@@",
".@@@@@.@@...@@.@..@@@..@...@@@..X..@..@.@.@@...@@.@..@@@.@@@@.@.",
"...@@.@.@@@@....@..@.@.@@.@..@.X.X@...@@.@..@.@..@...@@@..@@@@.@",
"@.@..@.......XXXXX..@...@..@x@@@@@@@@@.@@.@.@@.XXXXX@..@@@.@@...",
"@@.@@@@.@.@.X@..@.X..@.@.@@@@.@@@@@@@@@@@@.@..X.@.@@X@..@@@....@",
"@@.@@.@@.@.X@.@.@@@...x@@.@@@@XX=XXXX..@@@@@@.@@@@..@X@..@.@..@.",
"@.@@....@.X..@...@@.@@@.@@XX@X@==@.X.XXX...@@@..@...@@X@.@@@.@@@",
".@..@.....X...@=@.@x@@@@X.@.*X*=*=*X*..@XX..x@@.@=@...X...@@@@..",
"@@@.@@.@..X.@.===.x@@@X.@***XX=XX=XXX***@.XX@@x@===...X@....@...",
".@.@..@.@.X@...=@@@.@@.**@@.@=.@.@=.@.@.**.@X@@x@@.@..X...@.@@@.",
"@.@....@.@X@@...@@@@..*....@.=..@.=..@@@..*@.X.@x@@.@.X.@@.@...@",
"@.@@....@@@X.@@x@@X.@*@@@.==========*@@.@..*..X@@x@@@X.@.@@@...@",
".@.@@.@...@@X.x@@@X.*@..===..@....@....=.@..*.XX@@x@X.@@..@@....",
"@@...@.@..@..X@X@X.*@.@..@@..@@.@..@...==....*@XXXXX@.@@.@....@.",
".@....@.@..@.@.@@.*.@@@..@@.@..@@@....@.==.@..*.@X.x.@..@.@..@.@",
".@@.@......@x@@X@*...@@....@.@..@....@.@.==.@..*.X..x@@....@..@@",
"@@.@...@@.@.@@@@*.@...@@...@@.@.@@@@..@...@@.@..*.X.x.@...@.@..@",
".@.@@...@@..@@X.*..@...@@.@..o*****.@..@....*.@.*@X.x.@@..@@....",
"@.@..@...@@@.@@*...@..@ooooo**=====**oooo@..*@.@.*.X@x@@.@.@@@..",
"@..@.@@....x@X.*@.@ooooOOOO*O========*OOOoooo*@.@*.X.x.@@.@.@@..",
"......@@@@.x@X@*.ooOOOOOOO*OOOXXXXX===*OOOOOOoo@.*.X@x...@......",
"@..@......x.X@*XoO=OOOOOO*==OXxxxxxX===*OOOOO=OooX*.X@x@....@.@@",
"....@....@x.XXXX===OOOOOO*==XxxxxxxxX==*OOOOO===OXXXX.x@@..@...@",
"@....@....xXXOO=OO=OOOOO*==Xxxx@@@xxxX==*OOOO=OO=XOoXXx@.@.@@...",
"@@.@..@..XXOO==XOO=OOOOO*==Xxx@@@@@xxX==*OOOO=OOO==OOoXX@@@....@",
".@@...@@XoOO==OXOO=OOOOO*==Xxx@@@@@xxX==*OOOO=OOOX==OOOoX@.@.@@.",
"@..@...@@XXoOO==OO=OOOOO*==Xxx@@@@@xxX==*OOOO=OO==OOOOXX..@.@..@",
"@........@xXXoOX===OOOOO*==Xxxx@@@xxxX==*OOOO===OXOOXXx...@@.@..",
"@....@.@..x.XXXXOO=OOOOOO*==XxxxxxxxX==*OOOOO=OOOXXXX.x@.@.@@.@.",
".@....@...x@X.*XooOOOOOOO*===XxxxxxX===*OOOOOOOOoX*@X.x.@....@.@",
".@@.@.@@.@.x@X.*@.ooOOOOOO*===XXXXX===*OOOOOOOoo.*.X@x.....@.@@.",
"@@..@@..@.@x.X@*.@@*ooooOOO*=========*OOOOoooo..@*@X.x.@.@@...@@",
".@.@@.@.@@@x.X@*..@*@...oooo**=====**ooooo.**.@..*.X.x@...@@...@",
"..@.@@.@....x.X@*@..@.@..@....*****o@..@..**@@..*.X.x..@.@..@...",
"...@..@.@..@x@X.*...@==...@@...@.@..@.@..**@....*.X@x@..@@@.@@..",
"..@.@..@.@.@x@@X@*...@==@.@@....@...@@@@.*@.@..*.X..x.@.@@.@...@",
"@..@.@.@@....x.X.@*@@.@==@.@@...@@.@.@@...@@.@*.@X.x......@...@@",
".@..@.@..@.@.XXXXX@*.@..@=@..@...@@....@.@..@*.XXXXX.@@.@.@@@...",
"@.@..@....@@X.x@.XX.*.@.@@.@========....@@@.*.XX..x.X..@.@..@.@.",
".@...@..@..@...x@@XX.*...@@.@=@..@=@.......*.XX..x.@.@..@.@.@@..",
"..@.@.@.@..@@.@.x@.XX@*...@..=..@.=..@...@*.XX.@x...@@@..@....@.",
"..@@@@.@@.@..@.=.x@.X..**@..@.=.@=.@.@@.**.@X..x@=@.@@@@.@@.@@@.",
"...@@.@..@.@.@===.x@XXX@@***XXX=X=XXX***..XXX.x.===@..@.@.@@@...",
"@..@.@@...@.@.@=.@.xX..XX@.@*X*==**X*@..XX@.Xx...=@....@@@..@@.@",
"@@...@@@.........@@.Xx...XXX@X@@=@.X@XXX.@.xX@@....@...@@.@....@",
".@.@@..@...@@....@.X..xxx..@XXXXXXXXX@.@xxx..X...@..@....@.@..@.",
".@.@.@@.@.@.X@.@.@X.@....xxx..X..@X@.xxx@.@...X...@.X@.@.@@.@.@@",
"@@.@@@@.@@.@.XXXXX...@..@.@.xxxXxXxxx....@.@@..XXXXX..@.@.@@@@.@",
"@.@..@@@.@@.@..@...@@...@@@@..@X.X@@.@..@.@.@@@@.......@.@@.@.@.",
".@.@.@@@@.@@.@..@.@..@.@..@@....X@.@@.@..@.@.@....@@.@..@@..@@..",
"..@@..@@..@.@.@..@.@....@.@@...@@@..@@...@@.@..@@@.@@@@..@@@...@",
"@.@@@@.@@@@.@@@@.@@.@..@.@....@..@.....@@..@....@...@@.@..@....@",
"@@..@@@..@....@@@.@@...@@.@.@@.@.@@...@.@...@.@..@.@.@@.@..@@..@",
"@..@@@@@@@@@@.@@.@..@@..@@@@..@@..@@...@..@..@@@..@.@@.@..@.@.@@",
"@@@@..@@@..@...@@.@...@@..@....@@.....@.@@.@..@.@..@...@@.@....@",
".@..@.@@@...@.@..@....@.@....@.@@@...@.@.@..@..@.@..@.@..@..@@@@",
"..@@@@.@..@@.@....@@..@@...@..@......@@@..@@.@.@..@..@.@..@@@@.@"
};
