/* XPM */
static const char *texture[] = {
"64 64 11 1 ",
"@ c #050505",
". c #0f0f10",
"+ c #1a1a1d",
"# c #2a2a30",
"$ c #5a5a62",
"o c #b9b9bf",
"O c #e6e6e8",
"x c #3b0608",
"X c #7a0d12",
"* c #c31c1d",
"= c #ef3a34",
".@+@@@@@@@@@@@@@.@@@@@@.@+@@@@@@@@@@@@@.@@@@@@.@+@@@@@@@@@@@@@.@",
"@@@+@@@@@@@@+@@@@@@@.@@@@@@@@.@@@@@@@@.@@@@.@@@.@@@@.@@@.@@@@.@@",
"@@@@@@.@@.@@@+@@@@@@@@.@@.@@@+@@@@@@@@@@@.@@@+@@@@@@@@@@@.@@@+@@",
"@@@.@@@@@@@+@@@@+@@@@+@.@@@@.@@@@@@@@@@@@@@@@@@@@@@@@@@.@@@@.@@@",
"@@@@@@@@@@@@@@@@@@@@@@@@+@+@+@@@@@@@@@@@@@@@@@@@@@@@.@.@.@.@@@@@",
"@@@@@@@@@@@@@@@@@@@@@@@@@@@@@.@@@@@@.@+@@.@@@@@@.@+@@@@@@@@@@@@@",
"@@.@@.@@@@@.@@.@@@@@@@@@@@@@@***+@@@@@@.@@.@@@@@.@@.@@@@@@@@@@@@",
"+.@@@.@@@@@@@@@@@+@@@@@@@@@@**@**@@.@@@@@@@@.@@+@@@@@@@@@@@@+.@@",
"@@@@+@.@O***O.@@@@@@.@@@@@@O*@@@*x.@@@@@@.@@@@@@.@@@@@@@@@@@@@@@",
"@@@@+@@O*=@**O@@@@@@@@@+@@@.**@**x#@@@@@@@@+@OO***OO@@@@@@@@@@+@",
"..@@@Ooo*@@@*xoO@@@@@@@@.@.@@***xx@@@@@@@@@@OO*XXX*oO@@++@@@@@@@",
"@@@.@@#O**@**x###@@@@@@@@@.@@@xxx.@+@@@@@@@OO*X=@XX*oO@@.@+@@@@@",
"@@@@@@@@O***xx#@@@+@@@@@@@@+@@@@@@@@+@@@@@Ooo*X@@@X*xoO@@@@@@@.@",
"@@@@@@@.@#xxx#+@@@@@@@@.@@.@@@+@@@@@@@@.@@.OO*XX@XX*xO##@@.@@@+@",
"@@@@@@@@@@@@@@@@@@@@@@@@@@.@@@@.@@@@.@@@@@@@OO*XXX*xx##@.@@@@.@@",
"@@.@.@.@@@@@@@@@.@.@.@.@@@@@@@@@@@@@@@@@@@@@@OO***xx##@@@+@+@+@@",
"@@@@@@@@@.@@@@@@.@+@@.@@@@@@.@+@@@@@@@@@@@@@@@##xxx##@@@@@@@@@.@",
"@.@@@@@@@@.@@@@@@@@@@@@@@@@@+@@+@@@.@@.@@@@@.@@.@@@@@@@@@@@@@@@@",
"@@@@.@@@.@@@@@@@@@@@+@@@@.@@@@@@@+.@@@.@@@@@@@@@@@+@@@@@@@@@@@@+",
"@@+@@@@@@+@.@@@OO***OO@+@.@@@@+@.@@@@+@.@O***O.@@@@@@.@@@@@@.@@@",
"@.@.@@@@@@@@@@OO*XXX*oO@@@@@@@@@@@@@@+@@O*=@**O@@@@@@@@@+@@@..@@",
"@@@@@@.@.@@@@OO*X=@XX*oO@@@@@@@.@..@@@Ooo*@@@*xoO@@@@@@@@.@.@@@+",
"@@@@@@@@@@@@Ooo*X@@@X*xoO@@@@@@@@@@@.@@#O**@**x###@@@@@@@@@.@@@@",
".@@@@.@@@@@@@OO*XX@XX*xO##@@@@@@@@@@@@@@@O***xx#@@@+@@@@@@@@+@@@",
"@@@@@@@@.@@@@@OO*XXX*xx##@@.@@@+@@@@@@@@.@#xxx#+@@@@@@@@.@@.@@@+",
"@@.@@@@.@@@@@@@OO***xx##@+@.@@@@.@@@@@@@@@@@@@@@@@@@@@@@@@@.@@@@",
"@@@@@+@+@+@+@@@@##xxx##@@@@@@@@@@@@.@.@.@@@@@@@@@.@.@.@.@@@@@@@@",
"@.@@@@@@.@+@@.@@@@@@@@@@@@@@@@@@@@@@@@@@@@.@@@@@@.@+@@.@@@@@@.@+",
"@@@@@@.@@.@@@@@@@@@@@@@@+@@+@@@@@@.@@@@@@@@.@@@@@@@@@@@@@@@@@+@@",
"@@@@@@@.@@@.@@@@@@@@@@@+@@@@.@@@@@@@@.@@@.@@@@@@@@@@@+@@@@.@@@@@",
"+.@@@@@+.@@@@@+.@@@@@+@@@@@@+@@@@@@+@@@@@@+@.@@@@+@.@@@@+@.@@@@+",
"@@@@@@@@@@@@@@@.@@@@@@@@@@O***O+@@.@.@@@@@@@@@@@@@+@@@.@@@@@@@@@",
"@@@@@@@***@@@@.@.@@@+@@@@O**@**O@@@@@@@.@.@@@@+@@@@@@@@@@@@@@@@@",
".@@@@@**@**@@@@@@@@@@@@.Oo*@@@*xO@@@@@@@@@@@@@.@OO***OO+@@@@@@@@",
"@@@@@O*@@@*x@@@.@@@@.@@@.O**@**x##@@@@.@@@@@@@@OO*XXX*oO.@@@@@@@",
"@@@@@@**@**x#@@@+@@@@@@@@.O***xx#@@@@@@@@.@@@@OO*X=@XX*oO.@@.@@@",
"@@@.@@@***xx@@@@@@@@@@@@@@@#xxx#@@@.@@@@.@@@@Ooo*X@@@X*xoO+@.@@@",
"@.@.@@@@xxx@@@@@@@@@@@@@@@@@@@@@@@@@@@+@+@+@+@OO*XX@XX*xO##@@@@@",
"@@+@@@@@@@@@@@@@@@@@@@.@@@@@@.@+@@.@@@@@@.@+@@.OO*XXX*xx##@@@@@@",
"@@.@@.@@@@@@@@@@@@@@@@@+@@@@@@.@@@@@@@@.@@.@@@@@OO***xx##+@@+@@@",
"@.@@@@@@@@.@@@@@@@@@@@@@@@+@@@@.@@@@@@@@.@@@.@@@@##xxx##+@@@@.@@",
"@@@@@@.@@@@@@.@@@@@@.@@@@@@.@@@@@+.@@@@@+.@@@@@+.@@@@@+@@@@@@+@@",
"@@@@@@@@@.@.@@@@@@@@@@@@@+@@.@.@@@@@@@@@@@@@@@@@.@@@@@@@@@@@@@@@",
"@@@+@@@@@@@@@@@@@@@@@.@@.@@@+@@@@@@@@@@@@@@@@@@.@.@@@+@@@@@@@@@@",
"@@@@@@@@@@.@@@@@@.@+@@@@@@@@@@@@@.@@@@@@.@+@@@@@@@@@@@@@.@@@@@@.",
"@@@@+@@@@@@@@+@@@@@@@.+@@@@@@@.@@@@@@@@.@@@@@@@@.@@@@.@@@.@@@@.@",
".@@@@@@@@@.@@@@@@@@@@@@@@@.@@@@@@@@@@@@@@@.@@@@@@+@@@@@@@@.@@@@@",
"@.@@@@.@@@@@@@O***O+@@@@+@.@@+@.@@@@OO***OO@@@@@@@@@@@@@@@@@@@@.",
"@@@@@@@@@@@@@O*=@**O.@.@@@@@@@.@.@.OO*XXX*oO@@@@@@@@@@@@@@@@@@@@",
"@@@@@@@@@.@Ooo*@@@*xoO@+@@.@@@@@@@OO*X=@XX*oO@@@@@@@@@@.@@@@@@.@",
"@.@@@@@@@@@@#O**@**x###@@@.@@.@@@Ooo*X@@@X*xoO@@@@@@@@@@+@@@@@@.",
"@@@@.@@@@@@@@.O***xx#@@@@@@@@+@@@@OO*XX@XX*xO##@@@@@@@@@@@@+@@@@",
"@@@@@@@@@@@.@@@#xxx#@@@@@.@@@@@@.@@OO*XXX*xx##.@@@@@@.@@@@@@.@@@",
"+@@.@.@@@@@@@@@@@@@+@@@@.@@@@@@@@@@@OO***xx##@@@@@@@@@@***+@@.@.",
"@@@@.@.@@@+@@@@@@@@@@@@@@@@@@.@.@@@@+##xxx##@@@@@@@@@@**@**@@+@@",
"@@@@.@+@@@@@@@@@@@@@.@@@@@@.@+@@@@@@@@@@@@@.@@@@@@.@+O*@@@*x@@@@",
".@@@@@@@@@+@@@@@@@@+@@@@@@@@+@@@@@@@@+@@@@@@@@+@@@@@@@**@**x#@@.",
"@.@@@@@@@@@@@@@@@.@@@@@@@@@.@@@@@.@@@@@@@@@.@@@@@@@@@@@***xx@@@@",
"@@.@@@@.@@@@@@@@@@@@@@@@@@@@@@@@@@.@@@@.@@@@@@@@@@@@+@@@xxx.@@+@",
"@@@@@@@@@@@@@@@@@@@+@+@+@+@@@@@@@@@@@@@@@@@@@@@@@.@.@.@.@@@@@@@.",
"@.@+@@.@@@@@@.@+@@@@@@@@@@@@@@@@@@@@@@@@@@.@+@@.@@@@@@.@+@@.@@@@",
"@@@@@@@@@@@@@@@+@@+@@@.@@.@@@@@@@@.@@@@@@@@@@@@@@@@@+@@@@@@.@@.@",
"@@+.@@@.@@@@@@@@.@@@@@@@@@@@@@@@+@@@@.@@@@@@@@.@@@@@@@@@@@@@@@+@",
"@@@@@@@@@@@@@@@@@@@@@@@@@@@@@@@@@@@@@@@@@@@@.@@@@@@.@@@@@@.@@@@@"
};
