/* XPM */
static const char *output[] = {
/* columns rows colors chars-per-pixel */
"64 64 3 1 ",
"  c gray13",
". c gray23",
"X c gray29",
/* pixels */
"                                                                ",
"............XX  .............XX.......  XX..........XXXXXXXX  ..",
"............XX  .............XX.......  XX..........XXXXXXXX  ..",
"..............  ......................  ..............XX..XX  ..",
"..............  ......................  ..............XX..XX  ..",
"..............  ......XX..............  ............XX....XX  ..",
"..............  ......XX..............  ............XX....XX  ..",
"..........XXXX  ....XXXX........XX..XX  XX...XX...........XX  ..",
"..........XXXX  ....XXXX........XX..XX  XX...XX...........XX  ..",
"                                                                ",
"                                                                ",
"....XX  ..................XX  .........XX...XX.....  XX.........",
"....XX  ..................XX  .........XX...XX.....  XX.........",
"....XX  ....................  .....................  ...........",
"....XX  ....................  .....................  ...........",
"....XX  ....................  .....................  ...........",
"....XX  ....................  .....................  ...........",
"....XX  ....................  .....................  ...........",
"..XXXX  ....XX......XX....XX  ....XX..........XXXX.  .......XX..",
"..XXXX  ....XX......XX....XX  ....XX..........XXXX.  .......XX..",
"                                                                ",
"                                                                ",
"XX......XX  ......XXXXXX..........  .....................  XXXXX",
"XX......XX  ......XXXXXX..........  .....................  XXXXX",
"..........  ......................  .....................  .....",
"..........  ....................XX  .....................  .....",
"..........  ....................XX  .....................  .....",
"........XX  ..............XX....XX  XX...................  .....",
"........XX  ..............XX....XX  XX...................  .....",
"....XXXXXX  XX..............XXXXXX  XXXXXX.XXXXXX......XX  .....",
"....XXXXXX  XX..............XXXXXX  XXXXXX.XXXXXX......XX  .....",
"                                                                ",
"                                                                ",
".................  .................XX..  ..................  ..",
".................  .................XX..  ..................  ..",
".................  .................XX..  ..................  ..",
"...............XX  ......XX.........XX..  ..................  ..",
"...............XX  ......XX.........XX..  ..................  ..",
".................  ....XX...........XX..  ..................  ..",
".................  ....XX...........XX..  ..................  ..",
"XXXXXXXXXXXXXXXXX  XXXXXXXXXXXXXXXXXXXXX  XXXXXXXXXXXXXXXXXX  XX",
"XXXXXXXXXXXXXXXXX  XXXXXXXXXXXXXXXXXXXXX  XXXXXXXXXXXXXXXXXX  XX",
"                                                                ",
"                                                                ",
".XX.  ..XX..............  .............XXXX...  XXXX.......XX...",
".XX.  ..XX..............  .............XXXX...  XXXX.......XX...",
"....  ..XX..............  ...........XX..XX...  ...........XX...",
"....  ..XX..............  ...........XX..XX...  ...........XX...",
"....  ..XX..............  ...............XX...  ...........XX...",
"....  ..XX.....XX.......  ...............XX...  ...........XX...",
"....  ..XX.....XX.......  ...............XX...  ...........XX...",
"X...  ..XXXX.....XX...XX  XXXXXX...XX....XX...  ......XX.XXXX..X",
"X...  ....XX.....XX...XX  XXXXXX...XX....XX...  ......XX.XXXX..X",
"                                                                ",
"                                                                ",
".....XX...XX  ........XX......  ............XXXX..  ............",
".....XX...XX  ........XX......  ............XXXX..  ............",
"..........XX  ................  ..............XX..  ............",
"..........XX  ................  ..............XX..  ............",
"..........XX  ................  ..............XX..  ............",
"..........XX  ................  ..............XX..  ............",
"........XXXX  XX........XX..XX  ............XXXX..  ..........XX",
"........XXXX  XX........XX..XX  ............XXXX..  ..........XX",
"                                                                "
};