/* XPM */
static const char *exit_w[] = {
/* columns rows colors chars-per-pixel */
"64 64 2 1 ",
"  c #ffffff",
". c #111111",
/* pixels */
"                                                                ",
"                                                                ",
"                                                                ",
"                                                                ",
"                                                                ",
"                                                                ",
"                                                                ",
"                                                                ",
"        ................................................        ",
"        ................................................        ",
"        ................................................        ",
"        ................................................        ",
"        ....                                        ....        ",
"        ....                                        ....        ",
"        ....                                        ....        ",
"        ....                                        ....        ",
"        ....                                        ....        ",
"        ....                                        ....        ",
"        ....      .....                   .....     ....        ",
"        ....      .....                   .....     ....        ",
"        ....      .....                   .....     ....        ",
"        ....      .....                   .....     ....        ",
"        ....      .....                   .....     ....        ",
"        ....      .....                   .....     ....        ",
"        ....      .....                   .....     ....        ",
"        ....      .....                   .....     ....        ",
"        ....      .........           .........     ....        ",
"        ....      .........           .........     ....        ",
"        ....      ..... ....         .... .....     ....        ",
"        ....      ..... ....         .... .....     ....        ",
"        ....      .....  ....       ....  .....     ....        ",
"        ....      .....  ....       ....  .....     ....        ",
"        ....      .....   ....     ....   .....     ....        ",
"        ....      .....   ....     ....   .....     ....        ",
"        ....      .....    ....   ....    .....     ....        ",
"        ....      .....    ....   ....    .....     ....        ",
"        ....      .....     .... ....     .....     ....        ",
"        ....      .....     .... ....     .....     ....        ",
"        ....      .....      .......      .....     ....        ",
"        ....      .....      .......      .....     ....        ",
"        ....      .....       .....       .....     ....        ",
"        ....      .....       .....       .....     ....        ",
"        ....      .....       .....       .....     ....        ",
"        ....      .....       .....       .....     ....        ",
"        ....      .....      .......      .....     ....        ",
"        ....      .....      .......      .....     ....        ",
"        ....      .....     .........     .....     ....        ",
"        ....                                        ....        ",
"        ....                                        ....        ",
"        ....                                        ....        ",
"        ....                                        ....        ",
"        ....                                        ....        ",
"        ................................................        ",
"        ................................................        ",
"        ................................................        ",
"        ................................................        ",
"                                                                ",
"                                                                ",
"                                                                ",
"                                                                ",
"                                                                ",
"                                                                ",
"                                                                ",
"                                                                "
};
